icons/copilot-16.svg

<svg xmlns="http://www.w3.org/2000/svg" width="16" height="16" viewBox="0 0 16 16"><path d="M6.25 9a.75.75 0 01.75.75v1.5a.75.75 0 01-1.5 0v-1.5A.75.75 0 016.25 9zm4.25.75a.75.75 0 00-1.5 0v1.5a.75.75 0 001.5 0v-1.5z"/><path d="M7.86 1.77c.05.053.097.107.14.164.043-.057.09-.111.14-.164.681-.731 1.737-.9 2.943-.765 1.23.136 2.145.527 2.724 1.26.566.716.693 1.614.693 2.485 0 .572-.053 1.147-.254 1.655l.168.838.066.033A2.75 2.75 0 0116 9.736V11c0 .24-.086.438-.156.567-.073.131-.16.253-.259.366-.18.21-.404.413-.605.58a10.19 10.19 0 01-.792.597l-.015.01-.006.004-.028.018a8.849 8.849 0 01-.456.281c-.307.177-.749.41-1.296.642C11.296 14.528 9.756 15 8 15c-1.756 0-3.296-.472-4.387-.935a12.28 12.28 0 01-1.296-.641 8.849 8.849 0 01-.456-.281l-.028-.02-.006-.003-.015-.01a10.593 10.593 0 01-.792-.596 5.264 5.264 0 01-.605-.58 2.133 2.133 0 01-.259-.367A1.189 1.189 0 010 11V9.736a2.75 2.75 0 011.52-2.46l.067-.033.167-.838C1.553 5.897 1.5 5.322 1.5 4.75c0-.87.127-1.77.693-2.485.579-.733 1.494-1.124 2.724-1.26 1.206-.134 2.262.034 2.944.765zM3 7.824v4.261c.02.013.043.025.065.038.264.152.65.356 1.134.562.972.412 2.307.815 3.801.815 1.494 0 2.83-.403 3.8-.815.412-.174.813-.375 1.2-.6v-4.26l-.023-.116c-.49.21-1.075.291-1.727.291-1.146 0-2.06-.328-2.71-.991A3.233 3.233 0 018 6.266c-.144.269-.321.52-.54.743C6.81 7.672 5.896 8 4.75 8c-.652 0-1.236-.082-1.726-.291L3 7.824zm6.237-5.031c-.204.218-.359.678-.242 1.614.091.726.303 1.23.618 1.553.299.304.784.54 1.638.54.922 0 1.28-.199 1.442-.38.179-.2.308-.578.308-1.37 0-.765-.123-1.242-.37-1.555-.233-.296-.693-.586-1.713-.7-1.044-.116-1.488.091-1.681.298zm-2.472 0c-.193-.207-.637-.414-1.681-.298-1.02.114-1.48.404-1.713.7-.247.313-.37.79-.37 1.555 0 .792.129 1.17.308 1.37.162.181.52.38 1.442.38.854 0 1.339-.236 1.638-.54.315-.323.527-.827.618-1.553.117-.936-.038-1.396-.242-1.614z"/></svg>

<svg xmlns="http://www.w3.org/2000/svg" width="16" height="16" viewBox="0 0 16 16">
  <defs/>
  <path d="M6.25,9 A0.75 0.75 0 0 1 7,9.75 L7,11.25 A0.75 0.75 0 0 1 5.5,11.25 L5.5,9.75 A0.75 0.75 0 0 1 6.25,9 Z M10.5,9.75 A0.75 0.75 0 0 0 9,9.75 L9,11.25 A0.75 0.75 0 0 0 10.5,11.25 L10.5,9.75 Z"/>
  <path d="M7.86,1.77 C7.91,1.823 7.957,1.877 8,1.934 C8.043,1.877 8.09,1.823 8.14,1.77 C8.821,1.039 9.877,0.87 11.083,1.005 C12.313,1.141 13.228,1.532 13.807,2.265 C14.373,2.981 14.5,3.879 14.5,4.75 C14.5,5.322 14.447,5.897 14.246,6.405 L14.414,7.243 L14.48,7.276 C15.412,7.742 16,8.694 16,9.736 L16,11 C16,11.24 15.914,11.438 15.844,11.567 C15.771,11.698 15.684,11.82 15.585,11.933 C15.405,12.143 15.181,12.346 14.98,12.513 C14.726,12.725 14.461,12.924 14.188,13.11 L14.173,13.12 L14.167,13.124 L14.139,13.142 C13.99,13.24 13.838,13.334 13.683,13.423 C13.376,13.6 12.934,13.833 12.387,14.065 C11.296,14.528 9.756,15 8,15 C6.244,15 4.704,14.528 3.613,14.065 C3.169,13.877 2.736,13.663 2.317,13.424 C2.162,13.335 2.01,13.241 1.861,13.143 L1.833,13.123 L1.827,13.12 L1.812,13.11 C1.733,13.056 1.654,13.001 1.577,12.944 C1.427,12.836 1.225,12.684 1.02,12.514 C0.803,12.337 0.601,12.143 0.415,11.934 C0.316,11.821 0.229,11.698 0.156,11.567 C0.057,11.394 0.004,11.199 0,11 L0,9.736 C0,8.694 0.588,7.742 1.52,7.276 L1.587,7.243 L1.754,6.405 C1.553,5.897 1.5,5.322 1.5,4.75 C1.5,3.88 1.627,2.98 2.193,2.265 C2.772,1.532 3.687,1.141 4.917,1.005 C6.123,0.871 7.179,1.039 7.861,1.77 Z M3,7.824 L3,12.085 C3.02,12.098 3.043,12.11 3.065,12.123 C3.329,12.275 3.715,12.479 4.199,12.685 C5.171,13.097 6.506,13.5 8,13.5 C9.494,13.5 10.83,13.097 11.8,12.685 C12.212,12.511 12.613,12.31 13,12.085 L13,7.825 L12.977,7.709 C12.487,7.919 11.902,8 11.25,8 C10.104,8 9.19,7.672 8.54,7.009 C8.325,6.788 8.144,6.538 8,6.266 C7.856,6.535 7.679,6.786 7.46,7.009 C6.81,7.672 5.896,8 4.75,8 C4.098,8 3.514,7.918 3.024,7.709 L3,7.824 Z M9.237,2.793 C9.033,3.011 8.878,3.471 8.995,4.407 C9.086,5.133 9.298,5.637 9.613,5.96 C9.912,6.264 10.397,6.5 11.251,6.5 C12.173,6.5 12.531,6.301 12.693,6.12 C12.872,5.92 13.001,5.542 13.001,4.75 C13.001,3.985 12.878,3.508 12.631,3.195 C12.398,2.899 11.938,2.609 10.918,2.495 C9.874,2.379 9.43,2.586 9.237,2.793 Z M6.765,2.793 C6.572,2.586 6.128,2.379 5.084,2.495 C4.064,2.609 3.604,2.899 3.371,3.195 C3.124,3.508 3.001,3.985 3.001,4.75 C3.001,5.542 3.13,5.92 3.309,6.12 C3.471,6.301 3.829,6.5 4.751,6.5 C5.605,6.5 6.09,6.264 6.389,5.96 C6.704,5.637 6.916,5.133 7.007,4.407 C7.124,3.471 6.969,3.011 6.765,2.793 Z"/>
</svg>
